X:1
T:Who Are These, and Whence Came They?
T:Who Are These, and Whence Came They?
T:Joe Uthup, 2015
T:Horatius Bonar, 1861, alt.
T:Public Domain Courtesy of the Cyber Hymnal™
T:Public Domain Courtesy of the Cyber Hymnal™
C:Joe Uthup, 2015
Z:Public Domain
Z:Courtesy of the Cyber Hymnal™
%%score 1 2 3
L:1/8
Q:1/4=110
M:2/2
K:F
V:1 treble 
V:2 treble 
V:3 bass 
V:1
 [FA]4 [FA]2 [EG]2 | [EG][DF][DF][CE] [DF]2 [FA]2 | [GB]3 [FA] [EG]2 [DF]2 | [CE]6 [FA]2 | %4
w: 1.~Not from Je-|ru- sa- lem a- lone, To|Heav’n the path as-|cends; As|
w: 2.~What mat- ters|how or whence we start? One|is the crown to|all; One|
w: 3.~From the balm|breath- ing, sun loved isles, Of|the bright south- ern|sea, From|
w: 4.~The cold, rough|bil- low hin- ders none; Nor|helps the calm, fair|main; The|
w: 5.~As from the|green lands of the vine, So|from the snow wastes|pale, We|
w: 6.~Not from swift|Jor- dan’s sac- red stream A-|lone we mount a-|bove; In-|
w: 7.~Not from gray|Ol- iv- et a- lone We|see the gates of|light; From|
w: 8.~Not from Je-|ru- sa- lem a- lone The|Church as- cends to|God; Stran-|
 [Fc]3 [FB] [FA]2 [DF]2 | [Fd]3 [Ec] [DB]2 [EG]2 | [FA]2 [Ec]2 [DF]2 [CA]2 | %7
w: near, as sure, as|straight the way That|leads to the ce-|
w: is the hard but|glor- ious race, What-|ev- er be our|
w: the dead north’s cloud|sha- dowed pole, We|ga- ther to one|
w: brown rock of Nor-|we- gian gloom, The|ver- dure of Ta-|
w: find the ev- er|o- pen road To|the dear ci- ty|
w: dus or Dan- ube,|Thames or Rhone, Ri-|vers un- saint- ed|
w: Mor- ven’s heath or|Jung- frau’s snow We|wel- come the des-|
w: gers of ev- ery|tongue and clime, Pil-|grims of ev- ery|
 [B,G]2 [DB]2 [DE]2 [CG]2 | [Gc]3 [GB] [FA]2 [EG]2 | [DF]8 | [FB]2 [FA][EG] [CF]2 [CE]2 | [CF]8 |] %12
w: les- tial day, From|far- thest realms ex-|tends;|Fri- gid or tor- rid|zone.|
w: start- ing place— Rings|round the earth the|call|That says, “A- rise, de-|part!”|
w: glad- some goal, One|com- mon home in|Thee,|Ci- ty of sun and|smiles!|
w: hi- tian bloom, The|sands of Miz- raim’s|plain,|Or peaks of Le- ba-|non.|
w: of our God; From|steppe, or Bur- man|vale,|Or ter- raced Pal- es-|tine.|
w: and un- known— From|each the home of|love|Beck- ons with heav’n- ly|gleam.|
w: cend- ing glow Or|pearl and chrys- o-|lite|And the un- set- ting|sun.|
w: land and time, Throng|the well trod- den|road|That leads up to the|throne.|
V:2
 [DA]4 [DA]2 [C^A]2 | [B,B][B,B][Fc][Fc] [Bd]2 [Ad]2 | [GB]3 [Fc] [Gd]2 [Gd]2 | [Ae]6 [Ad]2 | %4
 [Af]3 [Ag] [Bf]2 [Ff]2 | [Gg]3 [Af] [Be]2 [Ae]2 | [Df]2 [Ae]2 [Bf]2 [Ff]2 | %7
 [G_c]2 [Ac]2 [A=c]2 [Ge]2 | [Fc]3 [Gc] [Ae]2 [^Ae]2 | [Bf]8 | [Eg]2 [Ff][Gg] [Af]2 [Ae]2 | %11
 [Df]8 |] %12
V:3
 F,4 C,2 ^C,2 | D,4 A,4 | B,4 G,4 | C4 B,4 | A,4 D,4 | B,4 C4 | F,2 E,2 D,2 C,2 | _F,4 C,4 | %8
 A,4 C4 | D4 C4 | G,4 C,4 | F,8 |] %12

